X:1
T:Herr ich habe lieb
T:Eduard Grell
T:Psalm 26,8 und 95,6
T:Herr ich habe lieb
T:CPDL   —   Creative Commons Attribution Non Commercial 3.0
C:Eduard Grell
Z:CPDL   —   Creative Commons Attribution Non Commercial 3.0
%%score [ ( 1 2 ) ( 3 4 ) ]
L:1/8
Q:1/4=80
M:4/4
K:C
V:1 treble nm="Sopran\nAlt"
V:2 treble 
V:3 bass nm="Tenor\nBass"
V:4 bass 
V:1
"^Mäßig""^Soli, Wiederholung Chor" !breath!G3 G G2 G2 | A6 B2 | c3 c d2 d2 | e4 c4 | B4 c4 | %5
w: Herr, ich ha- be|lieb die|Stät- te dei- nes|Hau- ses|und den|
 !breath!d2 c2 B2 A2 | (G4 B2) A2 | G8 ::"^Soli, Wiederholung Chor" !breath!B3 B B2 B2 | %9
w: Ort, da dei- ne|Eh- * re|wohnt.|Kommt, lasst uns an-|
 d4 !breath!c2 B2 | c4 !breath!B2 E2 | E6 E2 | E4 E2 z2 | z2 B>B !breath!c2 d>d | e3 c c2 d2 | %15
w: be- ten und|knie- en und|nie- der-|fal- len|vor dem Herrn, vor dem|Herrn, der uns ge-|
 (e2 c4 B2) |1 c8 :|2 c8- || c8- | c8 |] %20
w: macht _ _|hat,|hat,|_||
V:2
 E3 E E2 E2 | F6 F2 | G3 G A2 G2 | G4 E4 | D4 G4 | ^F2 F2 F2 F2 | G6 ^F2 | G8 :: G3 G G2 G2 | %9
w: |||||||||
 A4 ^G2 G2 | A4 ^G2 E2 | x2 C2 D2 C2 | C4 B,2 E>E | E6 G>G | G3 E F2 A2 | (G4 F4) |1 E8 :|2 %17
w: ||und nie- der-|fal- len vor dem|Herrn, * *||||
 E3 C D2 E2 || (F4 E2 ^D2) | E8 |] %20
w: hat, der uns ge-|macht _ _|hat.|
V:3
 C3 C C2 C2 | C6 D2 | C3 C C2 B,2 | C4 G,4 | G,4 G,4 | A,2 A,2 D2 C2 | (B,2 G,2 D2) C2 | B,8 :: %8
 D3 D D2 D2 | D4 E2 E2 | E4 E2 z2 | z2 A,2 B,2 A,2 | A,4 ^G,2 z2 | z2 ^G,>G, A,2 B,>B, | %14
 C3 C C2 C2 | (C2 E2 D4) |1 C8 :|2 C3 E, F,2 G,2 || (A,4 G,2 ^F,2) | G,8 |] %20
V:4
 C,3 C, C,2 C,2 | F,6 D,2 | E,3 E, F,2 G,2 | C,4 C,4 | G,4 E,4 | D,2 D,2 D,2 D,2 | (E,4 D,2) D,2 | %7
w: |||||||
 G,,8 :: G,3 G, G,2 G,2 | F,4 E,2 E,2 | A,4 E,2 x2 | x2 A,,2 ^G,,2 A,,2 | [E,,E,]4 [E,,E,]2 x2 | %13
w: ||||||
 x2 E,>E, A,2 =G,>G, | C3 C A,2 F,2 | G,8 |1 C,8 :|2 C,6 C,2 || C,8 | C,8 |] %20
w: ||||hat, ge-|macht|hat.|

